icon-themes/sifr_svg/cmd/sc_paragraphdialog.svg

<svg viewBox="0 0 16 16" xmlns="http://www.w3.org/2000/svg"><path d="m9 1v7h1 2c1.104569 0 2-.8954305 2-2s-.895431-2-2-2h-2v-3zm-6 2v1h3v1h-2.5c-.8284271 0-1.5.6715729-1.5 1.5 0 .828427.6715729 1.5 1.5 1.5h3.5v-4c0-.5522847-.4477153-1-1-1zm7 2h2c.552285 0 1 .4477153 1 1s-.447715 1-1 1h-2zm-6.5 1h2.5v1h-2.5c-.2761424 0-.5-.2238576-.5-.5s.2238576-.5.5-.5zm8.5 3v1c1.560655 1.623957-.566483 3.497742-2 2h-1v1c.8.77108 1.635355 1 2.400391 1h1.599609l2 2h1v-1l-2-2v-1.599609c0-.88237-.214695-1.600391-1-2.400391z" fill="#555753"/></svg>

<svg xmlns="http://www.w3.org/2000/svg" viewBox="0 0 16 16">
  <path
     style="fill:#555753"
     d="M 9 1 L 9 8 L 10 8 L 12 8 C 13.104569 8 14 7.1045695 14 6 C 14 4.8954305 13.104569 4 12 4 L 10 4 L 10 1 L 9 1 z M 3 3 L 3 4 L 6 4 L 6 5 L 3.5 5 C 2.6715729 5 2 5.6715729 2 6.5 C 2 7.328427 2.6715729 8 3.5 8 L 7 8 L 7 4 C 7 3.4477153 6.5522847 3 6 3 L 3 3 z M 10 5 L 12 5 C 12.552285 5 13 5.4477153 13 6 C 13 6.5522847 12.552285 7 12 7 L 10 7 L 10 5 z M 3.5 6 L 6 6 L 6 7 L 3.5 7 C 3.2238576 7 3 6.7761424 3 6.5 C 3 6.2238576 3.2238576 6 3.5 6 z M 12 9 L 12 10 C 13.560655 11.623957 11.433517 13.497742 10 12 L 9 12 L 9 13 C 9.8 13.77108 10.635355 14 11.400391 14 L 13 14 L 15 16 L 16 16 L 16 15 L 14 13 L 14 11.400391 C 14 10.518021 13.785305 9.8 13 9 L 12 9 z "
     />
</svg>
